Numix-Circle/48x48/apps/steam_icon_300550.svg

<?xml version="1.0" encoding="UTF-8" standalone="no"?>
<svg
   xmlns:dc="http://purl.org/dc/elements/1.1/"
   xmlns:cc="http://creativecommons.org/ns#"
   xmlns:rdf="http://www.w3.org/1999/02/22-rdf-syntax-ns#"
   xmlns:svg="http://www.w3.org/2000/svg"
   xmlns="http://www.w3.org/2000/svg"
   xmlns:sodipodi="http://sodipodi.sourceforge.net/DTD/sodipodi-0.dtd"
   xmlns:inkscape="http://www.inkscape.org/namespaces/inkscape"
   viewBox="0 0 48 48"
   id="svg2"
   version="1.1"
   inkscape:version="0.91 r13725"
   width="100%"
   height="100%"
   sodipodi:docname="steam_icon_300550.svg">
  <metadata
     id="metadata61">
    <rdf:RDF>
      <cc:Work
         rdf:about="">
        <dc:format>image/svg+xml</dc:format>
        <dc:type
           rdf:resource="http://purl.org/dc/dcmitype/StillImage" />
      </cc:Work>
    </rdf:RDF>
  </metadata>
  <sodipodi:namedview
     pagecolor="#ffffff"
     bordercolor="#666666"
     borderopacity="1"
     objecttolerance="10"
     gridtolerance="10"
     guidetolerance="10"
     inkscape:pageopacity="0"
     inkscape:pageshadow="2"
     inkscape:window-width="1366"
     inkscape:window-height="737"
     id="namedview59"
     showgrid="true"
     inkscape:object-paths="true"
     inkscape:snap-intersection-paths="true"
     inkscape:object-nodes="true"
     inkscape:snap-smooth-nodes="true"
     inkscape:snap-midpoints="true"
     inkscape:zoom="12.361702"
     inkscape:cx="12.081616"
     inkscape:cy="23.5"
     inkscape:window-x="0"
     inkscape:window-y="0"
     inkscape:window-maximized="1"
     inkscape:current-layer="svg2">
    <inkscape:grid
       type="xygrid"
       id="grid3121" />
  </sodipodi:namedview>
  <defs
     id="defs4">
    <linearGradient
       id="linearGradient3764"
       x1="1"
       x2="47"
       gradientUnits="userSpaceOnUse"
       gradientTransform="matrix(0,-1,1,0,-1.5e-6,47.999998)">
      <stop
         stop-color="#b23636"
         stop-opacity="1"
         id="stop7"
         offset="0"
         style="stop-color:#7b2525;stop-opacity:1;" />
      <stop
         offset="1"
         stop-color="#c23b3c"
         stop-opacity="1"
         id="stop9"
         style="stop-color:#8a2a2b;stop-opacity:1;" />
    </linearGradient>
  </defs>
  <g
     id="g21">
    <path
       d="m 36.31 5 c 5.859 4.062 9.688 10.831 9.688 18.5 c 0 12.426 -10.07 22.5 -22.5 22.5 c -7.669 0 -14.438 -3.828 -18.5 -9.688 c 1.037 1.822 2.306 3.499 3.781 4.969 c 4.085 3.712 9.514 5.969 15.469 5.969 c 12.703 0 23 -10.298 23 -23 c 0 -5.954 -2.256 -11.384 -5.969 -15.469 c -1.469 -1.475 -3.147 -2.744 -4.969 -3.781 z m 4.969 3.781 c 3.854 4.113 6.219 9.637 6.219 15.719 c 0 12.703 -10.297 23 -23 23 c -6.081 0 -11.606 -2.364 -15.719 -6.219 c 4.16 4.144 9.883 6.719 16.219 6.719 c 12.703 0 23 -10.298 23 -23 c 0 -6.335 -2.575 -12.06 -6.719 -16.219 z"
       opacity="0.05"
       id="path23" />
    <path
       d="m 41.28 8.781 c 3.712 4.085 5.969 9.514 5.969 15.469 c 0 12.703 -10.297 23 -23 23 c -5.954 0 -11.384 -2.256 -15.469 -5.969 c 4.113 3.854 9.637 6.219 15.719 6.219 c 12.703 0 23 -10.298 23 -23 c 0 -6.081 -2.364 -11.606 -6.219 -15.719 z"
       opacity="0.1"
       id="path25" />
    <path
       d="m 31.25 2.375 c 8.615 3.154 14.75 11.417 14.75 21.13 c 0 12.426 -10.07 22.5 -22.5 22.5 c -9.708 0 -17.971 -6.135 -21.12 -14.75 a 23 23 0 0 0 44.875 -7 a 23 23 0 0 0 -16 -21.875 z"
       opacity="0.2"
       id="path27" />
  </g>
  <g
     id="g29">
    <path
       d="m 24 1 c 12.703 0 23 10.297 23 23 c 0 12.703 -10.297 23 -23 23 -12.703 0 -23 -10.297 -23 -23 0 -12.703 10.297 -23 23 -23 z"
       fill="url(#linearGradient3764)"
       fill-opacity="1"
       id="path31" />
  </g>
  <g
     id="g33" />
  <g
     id="g55">
    <path
       d="m 40.03 7.531 c 3.712 4.084 5.969 9.514 5.969 15.469 0 12.703 -10.297 23 -23 23 c -5.954 0 -11.384 -2.256 -15.469 -5.969 4.178 4.291 10.01 6.969 16.469 6.969 c 12.703 0 23 -10.298 23 -23 0 -6.462 -2.677 -12.291 -6.969 -16.469 z"
       opacity="0.1"
       id="path57" />
  </g>
  <g
     transform="translate(0.76131683,1.1828211)"
     style="opacity:0.1;fill:#000000"
     id="g3935">
    <path
       sodipodi:nodetypes="ccccccccccccccccccccccccccccc"
       inkscape:connector-curvature="0"
       id="path3937"
       d="m 20.371974,14.269531 c 1.497607,-1.327756 3.576867,-1.546424 5.49362,-1.451624 2.597472,0.140713 4.884004,0.723448 6.96072,2.314286 C 35,17 34.858794,19.01491 34.098517,20.301526 c 0,0 -0.37257,-0.844551 -0.74076,-1.322828 -1.526073,-1.810382 -3.225578,-1.551059 -4.851437,-1.963162 -0.239583,0.427083 -0.141737,0.09495 -0.38132,0.522035 l 3.234999,0.904699 -0.399274,0.63196 c 0,0 -1.916913,-0.571542 -4.490795,-0.910809 -1.069461,-0.581716 -3.785866,1.653758 -2.417088,1.81071 2.427264,0.702188 4.656695,1.5088 6.591405,3.338937 2.651207,2.663535 3.453317,6.129136 1.968049,9.494383 C 32,34 31,36 27.180468,36.746076 24,37 20.465874,36.629572 18.549958,34.720995 16.939693,33.030443 16.915444,30 17.950423,28.350376 19.915444,25 25,26 24.783203,26.005859 c -0.09927,0.104558 -3.257633,0.639368 -3.83988,1.299317 -1.451141,1.055907 -1.796985,3.293809 -0.700996,4.720922 1.360536,1.714436 5.102159,1.999185 7.1138,0.793234 1.821272,-0.961 2.551745,-2.527063 2.140961,-4.404941 -0.196181,-1.49055 -2.608719,-2.866552 -3.998612,-3.496388 C 24.047017,24.116047 23.808154,24.034476 22.197212,23.922278 20.043779,23.45216 17.797611,22.158175 17,20 c -0.554903,-1.727692 0.73454,-3.305697 1.915643,-4.409499 0.475658,-0.450762 0.945434,-0.909575 1.456331,-1.32097 z m 7.290597,1.152255 c 1.498769,-0.216787 -0.515791,-1.39519 -1.346999,-1.134392 -2.227155,0.324097 0.697361,1.429902 1.346999,1.134392 z"
       style="fill:#000000;stroke:none" />
    <path
       sodipodi:nodetypes="ccccc"
       inkscape:connector-curvature="0"
       id="path3939"
       d="m 28.994903,13.363263 c 0.01186,-0.705266 0.04244,-1.855507 0.04244,-1.855507 C 27.835425,10.856217 25.796875,11 25.796875,11 c 0,0 0.604724,1.487807 0.599444,1.85634 0.248643,0.914723 1.799444,0.338425 2.598584,0.506923 z"
       style="fill:#000000;stroke:none" />
    <path
       sodipodi:nodetypes="ccccc"
       inkscape:connector-curvature="0"
       id="path3941"
       d="M 24.493265,13.033052 C 24.181579,12.355368 23.869893,11.677684 23.558207,11 c -1.048189,0.01792 -2.580075,0.116239 -2.935295,0.680155 L 22,13.536661 c 0.521606,-0.02334 1.97166,-0.480274 2.493265,-0.503609 z"
       style="fill:#000000;stroke:none" />
    <path
       sodipodi:nodetypes="cccccc"
       inkscape:connector-curvature="0"
       id="path3943"
       d="m 21.176286,13.919621 -1.935308,-1.196686 c -1.498614,0.188323 -2.959728,2.04543 -2.959728,2.04543 0,0 1.757332,0.569914 1.979265,0.869648 0.279625,0.18608 0.569814,1.248103 0.875897,0.758157 0.514959,-0.478262 1.524915,-1.998288 2.039874,-2.476549 z"
       style="fill:#000000;stroke:none" />
    <path
       sodipodi:nodetypes="ccccc"
       inkscape:connector-curvature="0"
       id="path3945"
       d="m 18.251487,16.305182 c -0.776594,0.125863 -1.553187,0.251727 -2.329781,0.37759 -1.136756,1.969382 -0.511407,3.215908 -0.511407,3.215908 0,0 1.833238,-0.669432 2.589701,-0.89868 0.08383,-0.898273 0.167658,-1.796545 0.251487,-2.694818 z"
       style="fill:#000000;stroke:none" />
    <path
       sodipodi:nodetypes="ccccc"
       inkscape:connector-curvature="0"
       id="path3947"
       d="M 18.263891,19.812313 C 17.431136,20.307167 16.364005,20.518882 16,21.498111 c 0.343785,0.623873 0.78053,1.482882 1.585938,2.392514 C 17.896463,22.900412 18.697287,22.302713 19,22 18.832755,21.505146 18.431136,20.307167 18.263891,19.812313 z"
       style="fill:#000000;stroke:none" />
  </g>
  <g
     id="g3905"
     style="fill:#ffcc00"
     transform="translate(-0.23868317,0.18282113)">
    <path
       style="fill:#ffcc00;stroke:none"
       d="m 20.371974,14.269531 c 1.497607,-1.327756 3.576867,-1.546424 5.49362,-1.451624 2.597472,0.140713 4.884004,0.723448 6.96072,2.314286 C 35,17 34.858794,19.01491 34.098517,20.301526 c 0,0 -0.37257,-0.844551 -0.74076,-1.322828 -1.526073,-1.810382 -3.225578,-1.551059 -4.851437,-1.963162 -0.239583,0.427083 -0.141737,0.09495 -0.38132,0.522035 l 3.234999,0.904699 -0.399274,0.63196 c 0,0 -1.916913,-0.571542 -4.490795,-0.910809 -1.069461,-0.581716 -3.785866,1.653758 -2.417088,1.81071 2.427264,0.702188 4.656695,1.5088 6.591405,3.338937 2.651207,2.663535 3.453317,6.129136 1.968049,9.494383 C 32,34 31,36 27.180468,36.746076 24,37 20.465874,36.629572 18.549958,34.720995 16.939693,33.030443 16.915444,30 17.950423,28.350376 19.915444,25 25,26 24.783203,26.005859 c -0.09927,0.104558 -3.257633,0.639368 -3.83988,1.299317 -1.451141,1.055907 -1.796985,3.293809 -0.700996,4.720922 1.360536,1.714436 5.102159,1.999185 7.1138,0.793234 1.821272,-0.961 2.551745,-2.527063 2.140961,-4.404941 -0.196181,-1.49055 -2.608719,-2.866552 -3.998612,-3.496388 C 24.047017,24.116047 23.808154,24.034476 22.197212,23.922278 20.043779,23.45216 17.797611,22.158175 17,20 c -0.554903,-1.727692 0.73454,-3.305697 1.915643,-4.409499 0.475658,-0.450762 0.945434,-0.909575 1.456331,-1.32097 z m 7.290597,1.152255 c 1.498769,-0.216787 -0.515791,-1.39519 -1.346999,-1.134392 -2.227155,0.324097 0.697361,1.429902 1.346999,1.134392 z"
       id="path3119"
       inkscape:connector-curvature="0"
       sodipodi:nodetypes="ccccccccccccccccccccccccccccc" />
    <path
       style="fill:#ffcc00;stroke:none"
       d="m 28.994903,13.363263 c 0.01186,-0.705266 0.04244,-1.855507 0.04244,-1.855507 C 27.835425,10.856217 25.796875,11 25.796875,11 c 0,0 0.604724,1.487807 0.599444,1.85634 0.248643,0.914723 1.799444,0.338425 2.598584,0.506923 z"
       id="path3893"
       inkscape:connector-curvature="0"
       sodipodi:nodetypes="ccccc" />
    <path
       style="fill:#ffcc00;stroke:none"
       d="M 24.493265,13.033052 C 24.181579,12.355368 23.869893,11.677684 23.558207,11 c -1.048189,0.01792 -2.580075,0.116239 -2.935295,0.680155 L 22,13.536661 c 0.521606,-0.02334 1.97166,-0.480274 2.493265,-0.503609 z"
       id="path3895"
       inkscape:connector-curvature="0"
       sodipodi:nodetypes="ccccc" />
    <path
       style="fill:#ffcc00;stroke:none"
       d="m 21.176286,13.919621 -1.935308,-1.196686 c -1.498614,0.188323 -2.959728,2.04543 -2.959728,2.04543 0,0 1.757332,0.569914 1.979265,0.869648 0.279625,0.18608 0.569814,1.248103 0.875897,0.758157 0.514959,-0.478262 1.524915,-1.998288 2.039874,-2.476549 z"
       id="path3897"
       inkscape:connector-curvature="0"
       sodipodi:nodetypes="cccccc" />
    <path
       style="fill:#ffcc00;stroke:none"
       d="m 18.251487,16.305182 c -0.776594,0.125863 -1.553187,0.251727 -2.329781,0.37759 -1.136756,1.969382 -0.511407,3.215908 -0.511407,3.215908 0,0 1.833238,-0.669432 2.589701,-0.89868 0.08383,-0.898273 0.167658,-1.796545 0.251487,-2.694818 z"
       id="path3899"
       inkscape:connector-curvature="0"
       sodipodi:nodetypes="ccccc" />
    <path
       style="fill:#ffcc00;stroke:none"
       d="M 18.263891,19.812313 C 17.431136,20.307167 16.364005,20.518882 16,21.498111 c 0.343785,0.623873 0.78053,1.482882 1.585938,2.392514 C 17.896463,22.900412 18.697287,22.302713 19,22 18.832755,21.505146 18.431136,20.307167 18.263891,19.812313 z"
       id="path3901"
       inkscape:connector-curvature="0"
       sodipodi:nodetypes="ccccc" />
  </g>
</svg>

<svg xmlns="http://www.w3.org/2000/svg" viewBox="0 0 48 48"><defs><linearGradient id="linearGradient3764" x1="1" x2="47" gradientUnits="userSpaceOnUse" gradientTransform="matrix(0,-1,1,0,-1.5e-6,47.999998)"><stop stop-color="#7b2525" stop-opacity="1"/><stop offset="1" stop-color="#8a2a2b" stop-opacity="1"/></linearGradient></defs><g><path d="m 36.31 5 c 5.859 4.062 9.688 10.831 9.688 18.5 c 0 12.426 -10.07 22.5 -22.5 22.5 c -7.669 0 -14.438 -3.828 -18.5 -9.688 c 1.037 1.822 2.306 3.499 3.781 4.969 c 4.085 3.712 9.514 5.969 15.469 5.969 c 12.703 0 23 -10.298 23 -23 c 0 -5.954 -2.256 -11.384 -5.969 -15.469 c -1.469 -1.475 -3.147 -2.744 -4.969 -3.781 z m 4.969 3.781 c 3.854 4.113 6.219 9.637 6.219 15.719 c 0 12.703 -10.297 23 -23 23 c -6.081 0 -11.606 -2.364 -15.719 -6.219 c 4.16 4.144 9.883 6.719 16.219 6.719 c 12.703 0 23 -10.298 23 -23 c 0 -6.335 -2.575 -12.06 -6.719 -16.219 z" opacity="0.05"/><path d="m 41.28 8.781 c 3.712 4.085 5.969 9.514 5.969 15.469 c 0 12.703 -10.297 23 -23 23 c -5.954 0 -11.384 -2.256 -15.469 -5.969 c 4.113 3.854 9.637 6.219 15.719 6.219 c 12.703 0 23 -10.298 23 -23 c 0 -6.081 -2.364 -11.606 -6.219 -15.719 z" opacity="0.1"/><path d="m 31.25 2.375 c 8.615 3.154 14.75 11.417 14.75 21.13 c 0 12.426 -10.07 22.5 -22.5 22.5 c -9.708 0 -17.971 -6.135 -21.12 -14.75 a 23 23 0 0 0 44.875 -7 a 23 23 0 0 0 -16 -21.875 z" opacity="0.2"/></g><g><path d="m 24 1 c 12.703 0 23 10.297 23 23 c 0 12.703 -10.297 23 -23 23 -12.703 0 -23 -10.297 -23 -23 0 -12.703 10.297 -23 23 -23 z" fill="url(#linearGradient3764)" fill-opacity="1"/></g><g><path d="m 40.03 7.531 c 3.712 4.084 5.969 9.514 5.969 15.469 0 12.703 -10.297 23 -23 23 c -5.954 0 -11.384 -2.256 -15.469 -5.969 4.178 4.291 10.01 6.969 16.469 6.969 c 12.703 0 23 -10.298 23 -23 0 -6.462 -2.677 -12.291 -6.969 -16.469 z" opacity="0.1"/></g><g transform="translate(0.76131683,1.1828211)" opacity="0.1" fill="#000"><path d="m 20.372 14.27 c 1.498 -1.328 3.577 -1.546 5.494 -1.452 2.597 0.141 4.884 0.723 6.961 2.314 c 2.174 1.868 2.032 3.883 1.272 5.169 c 0 0 -0.373 -0.845 -0.741 -1.323 -1.526 -1.81 -3.226 -1.551 -4.851 -1.963 -0.24 0.427 -0.142 0.095 -0.381 0.522 l 3.235 0.905 -0.399 0.632 c 0 0 -1.917 -0.572 -4.491 -0.911 -1.069 -0.582 -3.786 1.654 -2.417 1.811 2.427 0.702 4.657 1.509 6.591 3.339 2.651 2.664 3.453 6.129 1.968 9.494 c -0.612 1.193 -1.612 3.193 -5.432 3.939 -3.18 0.254 -6.715 -0.117 -8.631 -2.025 -1.61 -1.691 -1.635 -4.721 -0.6 -6.371 1.965 -3.35 7.05 -2.35 6.833 -2.345 c -0.099 0.105 -3.258 0.639 -3.84 1.299 -1.451 1.056 -1.797 3.294 -0.701 4.721 1.361 1.714 5.102 1.999 7.114 0.793 1.821 -0.961 2.552 -2.527 2.141 -4.405 -0.196 -1.491 -2.609 -2.867 -3.999 -3.496 c -1.451 -0.802 -1.69 -0.884 -3.301 -0.996 -2.153 -0.47 -4.4 -1.764 -5.197 -3.922 c -0.555 -1.728 0.735 -3.306 1.916 -4.409 0.476 -0.451 0.945 -0.91 1.456 -1.321 z m 7.291 1.152 c 1.499 -0.217 -0.516 -1.395 -1.347 -1.134 -2.227 0.324 0.697 1.43 1.347 1.134 z" fill="#000" stroke="none"/><path d="m 28.995 13.363 c 0.012 -0.705 0.042 -1.856 0.042 -1.856 c -1.202 -0.652 -3.24 -0.508 -3.24 -0.508 c 0 0 0.605 1.488 0.599 1.856 0.249 0.915 1.799 0.338 2.599 0.507 z" fill="#000" stroke="none"/><path d="m 24.493 13.03 c -0.312 -0.678 -0.623 -1.355 -0.935 -2.033 c -1.048 0.018 -2.58 0.116 -2.935 0.68 l 1.377 1.857 c 0.522 -0.023 1.972 -0.48 2.493 -0.504 z" fill="#000" stroke="none"/><path d="m 21.18 13.92 -1.935 -1.197 c -1.499 0.188 -2.96 2.045 -2.96 2.045 0 0 1.757 0.57 1.979 0.87 0.28 0.186 0.57 1.248 0.876 0.758 0.515 -0.478 1.525 -1.998 2.04 -2.477 z" fill="#000" stroke="none"/><path d="m 18.251 16.305 c -0.777 0.126 -1.553 0.252 -2.33 0.378 -1.137 1.969 -0.511 3.216 -0.511 3.216 0 0 1.833 -0.669 2.59 -0.899 0.084 -0.898 0.168 -1.797 0.251 -2.695 z" fill="#000" stroke="none"/><path d="m 18.264 19.812 c -0.833 0.495 -1.9 0.707 -2.264 1.686 c 0.344 0.624 0.781 1.483 1.586 2.393 c 0.311 -0.99 1.111 -1.588 1.414 -1.891 -0.167 -0.495 -0.569 -1.693 -0.736 -2.188 z" fill="#000" stroke="none"/></g><g transform="translate(-0.23868317,0.18282113)" fill="#fc0"><path d="m 20.372 14.27 c 1.498 -1.328 3.577 -1.546 5.494 -1.452 2.597 0.141 4.884 0.723 6.961 2.314 c 2.174 1.868 2.032 3.883 1.272 5.169 c 0 0 -0.373 -0.845 -0.741 -1.323 -1.526 -1.81 -3.226 -1.551 -4.851 -1.963 -0.24 0.427 -0.142 0.095 -0.381 0.522 l 3.235 0.905 -0.399 0.632 c 0 0 -1.917 -0.572 -4.491 -0.911 -1.069 -0.582 -3.786 1.654 -2.417 1.811 2.427 0.702 4.657 1.509 6.591 3.339 2.651 2.664 3.453 6.129 1.968 9.494 c -0.612 1.193 -1.612 3.193 -5.432 3.939 -3.18 0.254 -6.715 -0.117 -8.631 -2.025 -1.61 -1.691 -1.635 -4.721 -0.6 -6.371 1.965 -3.35 7.05 -2.35 6.833 -2.345 c -0.099 0.105 -3.258 0.639 -3.84 1.299 -1.451 1.056 -1.797 3.294 -0.701 4.721 1.361 1.714 5.102 1.999 7.114 0.793 1.821 -0.961 2.552 -2.527 2.141 -4.405 -0.196 -1.491 -2.609 -2.867 -3.999 -3.496 c -1.451 -0.802 -1.69 -0.884 -3.301 -0.996 -2.153 -0.47 -4.4 -1.764 -5.197 -3.922 c -0.555 -1.728 0.735 -3.306 1.916 -4.409 0.476 -0.451 0.945 -0.91 1.456 -1.321 z m 7.291 1.152 c 1.499 -0.217 -0.516 -1.395 -1.347 -1.134 -2.227 0.324 0.697 1.43 1.347 1.134 z" fill="#fc0" stroke="none"/><path d="m 28.995 13.363 c 0.012 -0.705 0.042 -1.856 0.042 -1.856 c -1.202 -0.652 -3.24 -0.508 -3.24 -0.508 c 0 0 0.605 1.488 0.599 1.856 0.249 0.915 1.799 0.338 2.599 0.507 z" fill="#fc0" stroke="none"/><path d="m 24.493 13.03 c -0.312 -0.678 -0.623 -1.355 -0.935 -2.033 c -1.048 0.018 -2.58 0.116 -2.935 0.68 l 1.377 1.857 c 0.522 -0.023 1.972 -0.48 2.493 -0.504 z" fill="#fc0" stroke="none"/><path d="m 21.18 13.92 -1.935 -1.197 c -1.499 0.188 -2.96 2.045 -2.96 2.045 0 0 1.757 0.57 1.979 0.87 0.28 0.186 0.57 1.248 0.876 0.758 0.515 -0.478 1.525 -1.998 2.04 -2.477 z" fill="#fc0" stroke="none"/><path d="m 18.251 16.305 c -0.777 0.126 -1.553 0.252 -2.33 0.378 -1.137 1.969 -0.511 3.216 -0.511 3.216 0 0 1.833 -0.669 2.59 -0.899 0.084 -0.898 0.168 -1.797 0.251 -2.695 z" fill="#fc0" stroke="none"/><path d="m 18.264 19.812 c -0.833 0.495 -1.9 0.707 -2.264 1.686 c 0.344 0.624 0.781 1.483 1.586 2.393 c 0.311 -0.99 1.111 -1.588 1.414 -1.891 -0.167 -0.495 -0.569 -1.693 -0.736 -2.188 z" fill="#fc0" stroke="none"/></g></svg>
